**harm	**harte	**timestamp	**phrase	**leadinstrument	**kern
*M4/4	*M4/4	*	*	*	*
*G:	*G:	*	*	*	*G:
1r;	N	0	.	r	1r;
=1	=1	=1	=1	=1	=1
*>A_intro	*>A_intro	*>A_intro	*>A_intro	*>A_intro	*>A_intro
2I	G:maj	1.731	newline	synthesizer	2G 2b 2dd
2vi7	E:min11	2.683	.	synthesizer	2E 2g 2b 2dd
=2	=2	=2	=2	=2	=2
2Ic	G:maj/5	3.636	.	synthesizer	2g 2b 2D
2IV	C:maj	4.588	.	synthesizer	2C 2e 2g
=3	=3	=3	=3	=3	=3
2I	G:maj	5.541	.	synthesizer	2G 2b 2dd
2vi7	E:min11	6.493	.	synthesizer	2E 2g 2b 2dd
=4	=4	=4	=4	=4	=4
2Ic	G:maj/5	7.446	.	synthesizer	2g 2b 2D
2IV	C:maj	8.398	.	synthesizer	2C 2e 2g
=5	=5	=5	=5	=5	=5
2I	G:maj	9.351	.	synthesizer	2G 2b 2dd
2vi7	E:min11	10.303	.	synthesizer	2E 2g 2b 2dd
=6	=6	=6	=6	=6	=6
2Ic	G:maj/5	11.256	.	synthesizer	2g 2b 2D
2IV	C:maj	12.208	.	synthesizer	2C 2e 2g
=7	=7	=7	=7	=7	=7
2V	D:maj	13.161	newline	synthesizer	2D 2f# 2a
2Ib	G:maj/3	14.111	.	synthesizer	2g 2B 2dd
=8	=8	=8	=8	=8	=8
2V	D:maj	15.062	.	synthesizer	2D 2f# 2a
2Ib	G:maj/3	16.013	.	synthesizer	2g 2B 2dd
=9	=9	=9	=9	=9	=9
*>A_verse	*>A_verse	*>A_verse	*>A_verse	*>A_verse	*>A_verse
2I	G:maj	16.964	newline	voice	2G 2b 2dd
2vi	E:min	17.907	.	voice	2E 2g 2b
=10	=10	=10	=10	=10	=10
2Ic	G:maj(9)/5	18.849	.	voice	2g 2b 2D
2IV	C:maj	19.791	.	voice	2C 2e 2g
=11	=11	=11	=11	=11	=11
2I	G:maj	20.734	.	voice	2G 2b 2dd
2vi	E:min	21.676	.	voice	2E 2g 2b
=12	=12	=12	=12	=12	=12
2Ic	G:maj(9)/5	22.619	.	voice	2g 2b 2D
2IV	C:maj	23.561	.	voice	2C 2e 2g
=13	=13	=13	=13	=13	=13
2I	G:maj	24.504	.	voice	2G 2b 2dd
2vi	E:min	25.446	.	voice	2E 2g 2b
=14	=14	=14	=14	=14	=14
2Ic	G:maj(9)/5	26.388	.	voice	2g 2b 2D
2IV	C:maj	27.331	.	voice	2C 2e 2g
=15	=15	=15	=15	=15	=15
2I	G:maj	28.273	.	voice	2G 2b 2dd
2vi	E:min	29.216	.	voice	2E 2g 2b
=16	=16	=16	=16	=16	=16
2Ic	G:maj(9)/5	30.158	.	voice	2g 2b 2D
2IV	C:maj	31.1	.	voice	2C 2e 2g
=17	=17	=17	=17	=17	=17
2I	G:maj	32.043	.	voice	2G 2b 2dd
2vi	E:min	32.985	.	voice	2E 2g 2b
=18	=18	=18	=18	=18	=18
2Ic	G:maj(9)/5	33.928	.	voice	2g 2b 2D
2IV	C:maj	34.87	.	voice	2C 2e 2g
=19	=19	=19	=19	=19	=19
2I	G:maj	35.812	.	voice	2G 2b 2dd
2vi	E:min	36.755	.	voice	2E 2g 2b
=20	=20	=20	=20	=20	=20
2Ic	G:maj(9)/5	37.697	.	voice	2g 2b 2D
2IV	C:maj	38.64	.	voice	2C 2e 2g
=21	=21	=21	=21	=21	=21
2I	G:maj	39.582	.	voice	2G 2b 2dd
2vi	E:min	40.525	.	voice	2E 2g 2b
=22	=22	=22	=22	=22	=22
2Ic	G:maj(9)/5	41.467	.	voice	2g 2b 2D
2IV	C:maj	42.409	.	voice	2C 2e 2g
=23	=23	=23	=23	=23	=23
2I	G:maj	43.352	newline	voice	2G 2b 2dd
2vi	E:min	44.306	.	voice	2E 2g 2b
=24	=24	=24	=24	=24	=24
2V	D:maj	45.26	.	voice	2D 2f# 2a
2IVe	C:maj/2	46.214	.	voice	2C 2e 2g
=25	=25	=25	=25	=25	=25
*>B_chorus	*>B_chorus	*>B_chorus	*>B_chorus	*>B_chorus	*>B_chorus
1vi	E:min	47.168	newline	voice	1E 1g 1b
=26	=26	=26	=26	=26	=26
1vi	E:min	49.059	.	voice	1E 1g 1b
=27	=27	=27	=27	=27	=27
1II7	A:7	50.95	.	voice	1A 1cc# 1ee 1gg
=28	=28	=28	=28	=28	=28
1IV	C:maj	52.841	.	voice	1C 1e 1g
=29	=29	=29	=29	=29	=29
2V	D:sus4	54.732	newline	voice	2D 2f# 2a
2V	D:maj	55.675	.	voice	2D 2f# 2a
=30	=30	=30	=30	=30	=30
2V	D:sus4	56.617	.	voice	2D 2f# 2a
2V	D:maj	57.559	.	voice	2D 2f# 2a
=31	=31	=31	=31	=31	=31
2I	G:maj	58.502	newline	voice	2G 2b 2dd
2vi	E:min	59.463	.	voice	2E 2g 2b
=32	=32	=32	=32	=32	=32
2Ic	G:maj(9)/5	60.424	.	voice	2g 2b 2D
2IV	C:maj	61.386	.	voice	2C 2e 2g
=33	=33	=33	=33	=33	=33
*>A_verse	*>A_verse	*>A_verse	*>A_verse	*>A_verse	*>A_verse
2I	G:maj	62.347	newline	.	2G 2b 2dd
2vi	E:min	63.291	.	.	2E 2g 2b
=34	=34	=34	=34	=34	=34
2Ic	G:maj(9)/5	64.236	.	.	2g 2b 2D
2IV	C:maj	65.18	.	.	2C 2e 2g
=35	=35	=35	=35	=35	=35
2I	G:maj	66.125	.	.	2G 2b 2dd
2vi	E:min	67.069	.	.	2E 2g 2b
=36	=36	=36	=36	=36	=36
2Ic	G:maj(9)/5	68.014	.	.	2g 2b 2D
2IV	C:maj	68.958	.	.	2C 2e 2g
=37	=37	=37	=37	=37	=37
2I	G:maj	69.902	.	.	2G 2b 2dd
2vi	E:min	70.847	.	.	2E 2g 2b
=38	=38	=38	=38	=38	=38
2Ic	G:maj(9)/5	71.791	.	.	2g 2b 2D
2IV	C:maj	72.736	.	.	2C 2e 2g
=39	=39	=39	=39	=39	=39
2I	G:maj	73.68	.	.	2G 2b 2dd
2vi	E:min	74.625	.	.	2E 2g 2b
=40	=40	=40	=40	=40	=40
2Ic	G:maj(9)/5	75.569	.	.	2g 2b 2D
2IV	C:maj	76.514	.	.	2C 2e 2g
=41	=41	=41	=41	=41	=41
2I	G:maj	77.458	.	.	2G 2b 2dd
2vi	E:min	78.402	.	.	2E 2g 2b
=42	=42	=42	=42	=42	=42
2Ic	G:maj(9)/5	79.347	.	.	2g 2b 2D
2IV	C:maj	80.291	.	.	2C 2e 2g
=43	=43	=43	=43	=43	=43
2I	G:maj	81.236	.	.	2G 2b 2dd
2vi	E:min	82.18	.	.	2E 2g 2b
=44	=44	=44	=44	=44	=44
2Ic	G:maj(9)/5	83.125	.	.	2g 2b 2D
2IV	C:maj	84.069	.	.	2C 2e 2g
=45	=45	=45	=45	=45	=45
2I	G:maj	85.014	.	.	2G 2b 2dd
2vi	E:min	85.958	.	.	2E 2g 2b
=46	=46	=46	=46	=46	=46
2Ic	G:maj(9)/5	86.902	.	.	2g 2b 2D
2IV	C:maj	87.847	.	.	2C 2e 2g
=47	=47	=47	=47	=47	=47
2I	G:maj	88.791	newline	.	2G 2b 2dd
2vi	E:min	89.726	.	.	2E 2g 2b
=48	=48	=48	=48	=48	=48
2V	D:maj	90.661	.	.	2D 2f# 2a
2IVe	C:maj/2	91.596	.	.	2C 2e 2g
=49	=49	=49	=49	=49	=49
*>B_chorus	*>B_chorus	*>B_chorus	*>B_chorus	*>B_chorus	*>B_chorus
1vi	E:min	92.53	newline	.	1E 1g 1b
=50	=50	=50	=50	=50	=50
1vi	E:min	94.422	.	.	1E 1g 1b
=51	=51	=51	=51	=51	=51
1II7	A:7	96.313	.	.	1A 1cc# 1ee 1gg
=52	=52	=52	=52	=52	=52
1IV	C:maj	98.205	.	.	1C 1e 1g
=53	=53	=53	=53	=53	=53
2V	D:sus4	100.096	newline	.	2D 2f# 2a
2V	D:maj	101.043	.	.	2D 2f# 2a
=54	=54	=54	=54	=54	=54
2V	D:sus4	101.99	.	.	2D 2f# 2a
2V	D:maj	102.937	.	.	2D 2f# 2a
=55	=55	=55	=55	=55	=55
2I	G:maj	103.884	newline	.	2G 2b 2dd
2vi	E:min	104.827	.	.	2E 2g 2b
=56	=56	=56	=56	=56	=56
1I	G:maj	105.769	.	.	1G 1b 1dd
=57	=57	=57	=57	=57	=57
*>B_chorus	*>B_chorus	*>B_chorus	*>B_chorus	*>B_chorus	*>B_chorus
1vi	E:min	107.654	newline	.	1E 1g 1b
=58	=58	=58	=58	=58	=58
1vi	E:min	109.581	.	.	1E 1g 1b
=59	=59	=59	=59	=59	=59
1II7	A:7	111.508	.	.	1A 1cc# 1ee 1gg
=60	=60	=60	=60	=60	=60
1IV	C:maj	113.435	.	.	1C 1e 1g
=61	=61	=61	=61	=61	=61
2V	D:sus4	115.361	newline	.	2D 2f# 2a
2V	D:maj	116.311	.	.	2D 2f# 2a
=62	=62	=62	=62	=62	=62
2V	D:sus4	117.261	.	.	2D 2f# 2a
2V	D:maj	118.211	.	.	2D 2f# 2a
=63	=63	=63	=63	=63	=63
2I	G:maj	119.161	newline	.	2G 2b 2dd
2vi	E:min	120.115	.	.	2E 2g 2b
=64	=64	=64	=64	=64	=64
2Ic	G:maj(9)/5	121.069	.	.	2g 2b 2D
2IV	C:maj	122.022	.	.	2C 2e 2g
=65	=65	=65	=65	=65	=65
*>A_verse	*>A_verse	*>A_verse	*>A_verse	*>A_verse	*>A_verse
2I	G:maj	122.976	newline	.	2G 2b 2dd
2vi	E:min	123.917	.	.	2E 2g 2b
=66	=66	=66	=66	=66	=66
2Ic	G:maj(9)/5	124.857	.	.	2g 2b 2D
2IV	C:maj	125.798	.	.	2C 2e 2g
=67	=67	=67	=67	=67	=67
2I	G:maj	126.738	.	.	2G 2b 2dd
2vi	E:min	127.679	.	.	2E 2g 2b
=68	=68	=68	=68	=68	=68
2Ic	G:maj(9)/5	128.619	.	.	2g 2b 2D
2IV	C:maj	129.56	.	.	2C 2e 2g
=69	=69	=69	=69	=69	=69
2I	G:maj	130.5	.	.	2G 2b 2dd
2vi	E:min	131.441	.	.	2E 2g 2b
=70	=70	=70	=70	=70	=70
2Ic	G:maj(9)/5	132.382	.	.	2g 2b 2D
2IV	C:maj	133.322	.	.	2C 2e 2g
=71	=71	=71	=71	=71	=71
2I	G:maj	134.263	.	.	2G 2b 2dd
2vi	E:min	135.203	.	.	2E 2g 2b
=72	=72	=72	=72	=72	=72
2Ic	G:maj(9)/5	136.144	.	.	2g 2b 2D
2IV	C:maj	137.084	.	.	2C 2e 2g
=73	=73	=73	=73	=73	=73
2I	G:maj	138.025	.	.	2G 2b 2dd
2vi	E:min	138.965	.	.	2E 2g 2b
=74	=74	=74	=74	=74	=74
2Ic	G:maj(9)/5	139.906	.	.	2g 2b 2D
2IV	C:maj	140.846	.	.	2C 2e 2g
=75	=75	=75	=75	=75	=75
2I	G:maj	141.787	.	.	2G 2b 2dd
2vi	E:min	142.728	.	.	2E 2g 2b
=76	=76	=76	=76	=76	=76
2Ic	G:maj(9)/5	143.668	.	.	2g 2b 2D
2IV	C:maj	144.609	.	.	2C 2e 2g
=77	=77	=77	=77	=77	=77
2I	G:maj	145.549	.	.	2G 2b 2dd
2vi	E:min	146.49	.	.	2E 2g 2b
=78	=78	=78	=78	=78	=78
2Ic	G:maj(9)/5	147.43	.	.	2g 2b 2D
2IV	C:maj	148.371	.	.	2C 2e 2g
=79	=79	=79	=79	=79	=79
2I	G:maj	149.311	newline	.	2G 2b 2dd
2vi	E:min	150.262	.	.	2E 2g 2b
=80	=80	=80	=80	=80	=80
2V	D:maj	151.212	.	.	2D 2f# 2a
2IVe	C:maj/2	152.163	.	.	2C 2e 2g
=81	=81	=81	=81	=81	=81
*>B_chorus	*>B_chorus	*>B_chorus	*>B_chorus	*>B_chorus	*>B_chorus
1vi	E:min	153.113	newline	.	1E 1g 1b
=82	=82	=82	=82	=82	=82
1vi	E:min	154.99	.	.	1E 1g 1b
=83	=83	=83	=83	=83	=83
1II7	A:7	156.866	.	.	1A 1cc# 1ee 1gg
=84	=84	=84	=84	=84	=84
1IV	C:maj	158.743	.	.	1C 1e 1g
=85	=85	=85	=85	=85	=85
2V	D:sus4	160.619	newline	.	2D 2f# 2a
2V	D:maj	161.58	.	.	2D 2f# 2a
=86	=86	=86	=86	=86	=86
2V	D:sus4	162.54	.	.	2D 2f# 2a
2V	D:maj	163.501	.	.	2D 2f# 2a
=87	=87	=87	=87	=87	=87
2I	G:maj	164.462	newline	.	2G 2b 2dd
2vi	E:min	165.414	.	.	2E 2g 2b
=88	=88	=88	=88	=88	=88
1I	G:maj	166.367	.	.	1G 1b 1dd
=89	=89	=89	=89	=89	=89
*>B_chorus	*>B_chorus	*>B_chorus	*>B_chorus	*>B_chorus	*>B_chorus
1vi	E:min	168.273	newline	.	1E 1g 1b
=90	=90	=90	=90	=90	=90
1vi	E:min	170.195	.	.	1E 1g 1b
=91	=91	=91	=91	=91	=91
1II7	A:7	172.117	.	.	1A 1cc# 1ee 1gg
=92	=92	=92	=92	=92	=92
1IV	C:maj	174.039	.	.	1C 1e 1g
=93	=93	=93	=93	=93	=93
2V	D:sus4	175.961	newline	.	2D 2f# 2a
2V	D:maj	176.924	.	.	2D 2f# 2a
=94	=94	=94	=94	=94	=94
2V	D:sus4	177.887	.	.	2D 2f# 2a
2V	D:maj	178.849	.	.	2D 2f# 2a
=95	=95	=95	=95	=95	=95
*>A_interlude	*>A_interlude	*>A_interlude	*>A_interlude	*>A_interlude	*>A_interlude
2I	G:maj	179.812	newline	.	2G 2b 2dd
2vi	E:min	180.755	.	.	2E 2g 2b
=96	=96	=96	=96	=96	=96
2Ic	G:maj/5	181.697	.	.	2g 2b 2D
2IV	C:maj	182.64	.	.	2C 2e 2g
=97	=97	=97	=97	=97	=97
2I	G:maj	183.582	.	.	2G 2b 2dd
2vi	E:min	184.525	.	.	2E 2g 2b
=98	=98	=98	=98	=98	=98
2Ic	G:maj/5	185.467	.	.	2g 2b 2D
2IV	C:maj	186.41	.	.	2C 2e 2g
=99	=99	=99	=99	=99	=99
2I	G:maj	187.352	.	.	2G 2b 2dd
2vi	E:min	188.295	.	.	2E 2g 2b
=100	=100	=100	=100	=100	=100
2Ic	G:maj/5	189.237	.	.	2g 2b 2D
2IV	C:maj	190.18	.	.	2C 2e 2g
=101	=101	=101	=101	=101	=101
2V	D:maj	191.122	newline	.	2D 2f# 2a
2Ib	G:maj/3	192.063	.	.	2g 2B 2dd
=102	=102	=102	=102	=102	=102
2V	D:maj	193.004	.	.	2D 2f# 2a
2Ib	G:maj/3	193.944	.	.	2g 2B 2dd
=103	=103	=103	=103	=103	=103
*>A2_verse	*>A2_verse	*>A2_verse	*>A2_verse	*>A2_verse	*>A2_verse
*A:	*A:	*	*	*	*A:
2I	A:maj	194.885	newline	.	2A 2cc# 2ee
2Ig	A:maj/6	195.836	.	.	2A 2cc# 2ee
=104	=104	=104	=104	=104	=104
2Ic	A:maj/5	196.786	.	.	2a 2cc# 2E
2If	A:maj/4	197.737	.	.	2A 2cc# 2ee
=105	=105	=105	=105	=105	=105
2I	A:maj	198.688	.	.	2A 2cc# 2ee
2Ig	A:maj/6	199.638	.	.	2A 2cc# 2ee
=106	=106	=106	=106	=106	=106
2Ic	A:maj/5	200.589	.	.	2a 2cc# 2E
2If	A:maj/4	201.54	.	.	2A 2cc# 2ee
=107	=107	=107	=107	=107	=107
2I	A:maj	202.49	.	.	2A 2cc# 2ee
2Ig	A:maj/6	203.441	.	.	2A 2cc# 2ee
=108	=108	=108	=108	=108	=108
2Ic	A:maj/5	204.391	.	.	2a 2cc# 2E
2If	A:maj/4	205.342	.	.	2A 2cc# 2ee
=109	=109	=109	=109	=109	=109
2I	A:maj	206.293	.	.	2A 2cc# 2ee
2Ig	A:maj/6	207.243	.	.	2A 2cc# 2ee
=110	=110	=110	=110	=110	=110
2Ic	A:maj/5	208.194	.	.	2a 2cc# 2E
2If	A:maj/4	209.145	.	.	2A 2cc# 2ee
=111	=111	=111	=111	=111	=111
2I	A:maj	210.095	.	.	2A 2cc# 2ee
2Ig	A:maj/6	211.046	.	.	2A 2cc# 2ee
=112	=112	=112	=112	=112	=112
2Ic	A:maj/5	211.997	.	.	2a 2cc# 2E
2If	A:maj/4	212.947	.	.	2A 2cc# 2ee
=113	=113	=113	=113	=113	=113
2I	A:maj	213.898	.	.	2A 2cc# 2ee
2Ig	A:maj/6	214.848	.	.	2A 2cc# 2ee
=114	=114	=114	=114	=114	=114
2Ic	A:maj/5	215.799	.	.	2a 2cc# 2E
2If	A:maj/4	216.75	.	.	2A 2cc# 2ee
=115	=115	=115	=115	=115	=115
2I	A:maj	217.7	.	.	2A 2cc# 2ee
2Ig	A:maj/6	218.651	.	.	2A 2cc# 2ee
=116	=116	=116	=116	=116	=116
2Ic	A:maj/5	219.602	.	.	2a 2cc# 2E
2If	A:maj/4	220.552	.	.	2A 2cc# 2ee
=117	=117	=117	=117	=117	=117
1I	A:maj	221.503	newline	.	1A 1cc# 1ee
=118	=118	=118	=118	=118	=118
1I	A:maj	223.392	.	.	1A 1cc# 1ee
=119	=119	=119	=119	=119	=119
*>B2_chorus	*>B2_chorus	*>B2_chorus	*>B2_chorus	*>B2_chorus	*>B2_chorus
1vi	F#:min	225.282	newline	.	1F# 1a 1cc#
=120	=120	=120	=120	=120	=120
1vi	F#:min	227.194	.	.	1F# 1a 1cc#
=121	=121	=121	=121	=121	=121
1II	B:maj	229.105	.	.	1B 1dd# 1ff#
=122	=122	=122	=122	=122	=122
1IV	D:maj	231.017	.	.	1D 1f# 1a
=123	=123	=123	=123	=123	=123
2V	E:sus4	232.929	newline	.	2E 2g# 2b
2V	E:maj	233.855	.	.	2E 2g# 2b
=124	=124	=124	=124	=124	=124
2V	E:sus4	234.781	.	.	2E 2g# 2b
2V	E:maj	235.707	.	.	2E 2g# 2b
=125	=125	=125	=125	=125	=125
2I	A:maj	236.633	newline	.	2A 2cc# 2ee
2vi	F#:min	237.57	.	.	2F# 2a 2cc#
=126	=126	=126	=126	=126	=126
1I	A:maj	238.507	.	.	1A 1cc# 1ee
=127	=127	=127	=127	=127	=127
*>B2_chorus	*>B2_chorus	*>B2_chorus	*>B2_chorus	*>B2_chorus	*>B2_chorus
1vi	F#:min	240.381	newline	.	1F# 1a 1cc#
=128	=128	=128	=128	=128	=128
1vi	F#:min	242.303	.	.	1F# 1a 1cc#
=129	=129	=129	=129	=129	=129
1II	B:maj	244.225	.	.	1B 1dd# 1ff#
=130	=130	=130	=130	=130	=130
1IV	D:maj	246.147	.	.	1D 1f# 1a
=131	=131	=131	=131	=131	=131
2V	E:sus4	248.068	newline	.	2E 2g# 2b
2V	E:maj	249.026	.	.	2E 2g# 2b
=132	=132	=132	=132	=132	=132
2V	E:sus4	249.985	.	.	2E 2g# 2b
2V	E:maj	250.943	.	.	2E 2g# 2b
=133	=133	=133	=133	=133	=133
*>A2_outro	*>A2_outro	*>A2_outro	*>A2_outro	*>A2_outro	*>A2_outro
2I	A:maj	251.901	newline	.	2A 2cc# 2ee
2Ig	A:maj/6	252.843	.	.	2A 2cc# 2ee
=134	=134	=134	=134	=134	=134
2Ic	A:maj/5	253.784	.	.	2a 2cc# 2E
2If	A:maj/4	254.725	.	.	2A 2cc# 2ee
=135	=135	=135	=135	=135	=135
2I	A:maj	255.667	.	.	2A 2cc# 2ee
2Ig	A:maj/6	256.608	.	.	2A 2cc# 2ee
=136	=136	=136	=136	=136	=136
2Ic	A:maj/5	257.55	.	.	2a 2cc# 2E
2If	A:maj/4	258.491	.	.	2A 2cc# 2ee
=137	=137	=137	=137	=137	=137
2I	A:maj	259.433	.	.	2A 2cc# 2ee
2Ig	A:maj/6	260.374	.	.	2A 2cc# 2ee
=138	=138	=138	=138	=138	=138
2Ic	A:maj/5	261.316	.	.	2a 2cc# 2E
2If	A:maj/4	262.257	.	.	2A 2cc# 2ee
=139	=139	=139	=139	=139	=139
2I	A:maj	263.198	.	.	2A 2cc# 2ee
2Ig	A:maj/6	264.14	.	.	2A 2cc# 2ee
=140	=140	=140	=140	=140	=140
2Ic	A:maj/5	265.081	.	.	2a 2cc# 2E
2If	A:maj/4	266.023	.	.	2A 2cc# 2ee
=141	=141	=141	=141	=141	=141
2I	A:maj	266.964	newline	fadeout voice	2A 2cc# 2ee
2Ig	A:maj/6	267.945	.	fadeout voice	2A 2cc# 2ee
=142	=142	=142	=142	=142	=142
2Ic	A:maj/5	268.925	.	fadeout voice	2a 2cc# 2E
2If	A:maj/4	269.906	.	fadeout voice	2A 2cc# 2ee
=143	=143	=143	=143	=143	=143
2I	A:maj	270.887	.	fadeout voice	2A 2cc# 2ee
2Ig	A:maj/6	271.867	.	fadeout voice	2A 2cc# 2ee
=144	=144	=144	=144	=144	=144
2Ic	A:maj/5	272.848	.	fadeout voice	2a 2cc# 2E
2If	A:maj/4	273.828	.	fadeout voice	2A 2cc# 2ee
=145	=145	=145	=145	=145	=145
2I	A:maj	274.809	.	fadeout voice	2A 2cc# 2ee
2Ig	A:maj/6	275.79	.	fadeout voice	2A 2cc# 2ee
=146	=146	=146	=146	=146	=146
2Ic	A:maj/5	276.77	.	fadeout voice	2a 2cc# 2E
2If	A:maj/4	277.751	.	fadeout voice	2A 2cc# 2ee
=147	=147	=147	=147	=147	=147
2I	A:maj	278.731	.	fadeout voice	2A 2cc# 2ee
2Ig	A:maj/6	279.712	.	fadeout voice	2A 2cc# 2ee
=148	=148	=148	=148	=148	=148
2Ic	A:maj/5	280.693	.	fadeout voice	2a 2cc# 2E
2If	A:maj/4	281.673	.	fadeout voice	2A 2cc# 2ee
=149	=149	=149	=149	=149	=149
2I	A:maj	282.654	.	fadeout voice	2A 2cc# 2ee
2Ig	A:maj/6	283.634	.	fadeout voice	2A 2cc# 2ee
=150	=150	=150	=150	=150	=150
2Ic	A:maj/5	284.615	.	fadeout voice	2a 2cc# 2E
2If	A:maj/4	285.596	.	fadeout voice	2A 2cc# 2ee
=151	=151	=151	=151	=151	=151
2I	A:maj	286.576	.	fadeout voice	2A 2cc# 2ee
2Ig	A:maj/6	287.557	.	fadeout voice	2A 2cc# 2ee
=152	=152	=152	=152	=152	=152
2Ic	A:maj/5	288.537	.	fadeout voice	2a 2cc# 2E
2If	A:maj/4	289.518	.	fadeout voice	2A 2cc# 2ee
=153	=153	=153	=153	=153	=153
2I	A:maj	290.499	.	fadeout voice	2A 2cc# 2ee
2Ig	A:maj/6	291.479	.	fadeout voice	2A 2cc# 2ee
=154	=154	=154	=154	=154	=154
2Ic	A:maj/5	292.46	.	fadeout voice	2a 2cc# 2E
2If	A:maj/4	293.44	.	fadeout voice	2A 2cc# 2ee
1r;	N	294.421	.	r	1r;
1r;	N	295.523	.	r	1r;
*-	*-	*-	*-	*-	*-
!!!OTL: All This Time
!!!COC: Sting
!!!BillboardChartDate: 1991/02/23
!!!BillboardPeak: 5
!!!BillboardWeeksOnChart: 15
!!!SampleTargetRank: 14
!!!SampleActualRank: 13
!!!SampleID#: 1012
!!!RDF**harmony: **recip + pitch class of root + harmonic quality
!!!RDF**harte: Chris Harte's syntax, used by MIREX
!!!RDF**phrase: newline = linebreak in original McGill transcription
!!!RDF**timestamp: McGill audio timestamp in seconds
!!!RDF**leadinstrument: original McGill primary instrumentation annotation
!!!RDT: 2017/01/12/
!!!ENC: Nathaniel Condit-Schultz
!!!EST: Awating manual error checking and editing.
